!!!COM: Schubert, Franz
!!!CDT: 1797/01/31-1828/11/19
!!!SCT: D. 365
!!!OPR: 36 Originaltänze
!!!OPS: 9
!!!ONM: 32
**kern	**kern	**dynam
*part1	*part1	*part1
*staff2	*staff1	*
*clefF4	*clefG2	*
*k[b-]	*k[b-]	*
*F:	*F:	*
*M3/4	*M3/4	*
=1	=1	=1
4D	4.ff	p
4G 4Bn 4f	.	.
.	8ff	<
4G 4B 4f	4ff	.
=2	=2	=2
.	((16qqff/	[
4C	4aa)	.
4A 4c 4f	8ggL	>
.	8ff	.
4A 4c 4f	8ee	.
.	8ddJ)	.
=3	=3	=3
4C	4.b-Xi 4.cc	]
4G 4c 4e	.	.
.	8b- 8cc	.
4G 4c 4e	4b- 4cc	.
=4	=4	=4
*	*^	*
4F	2.cc	8b-L	.
.	.	8a	.
4A 4c 4f	.	8g#X	.
.	.	8aJ	.
4A 4c	.	4f	.
*	*v	*v	*
=5	=5	=5
4D	4.f 4.ff	.
4G 4Bn	.	.
.	8f 8ff	.
4G 4B	4f 4ff	.
=6	=6	=6
4C	4a 4aa	.
!	!LO:TX:b:i:t=cresc.	!
4A 4c 4f	(8eeL	.
.	8ff	.
4A 4c 4f	8aa	.
.	8bb-J)	.
=7	=7	=7
4C	4.cc 4.ccc	.
4B-Xi 4c 4e	.	.
.	8cc 8ccc	.
4B- 4c 4e	4cc 4ccc	.
=8	=8	=8
4F	2ff 2fff	.
4A 4c 4f	.	.
4r	4r	.
=9:|!|:	=9:|!|:	=9:|!|:
4AA-X	4.cc 4.ccc	pp
4A-X 4c 4g-X	.	.
.	8cc 8ccc	.
4A- 4c 4g-	(4cc 4ccc	.
=10	=10	=10
4D-X	2dd-X) 2ddd-X	.
4A-X 4d-X 4f	.	.
4A- 4d- 4f	8cccL	.
.	8bb-J	.
=11	=11	=11
4AA-X	4.cc 4.gg-X 4.aa-X	.
4A-X 4c 4g-X	.	.
.	8cc 8gg- 8aa-	.
4A- 4c 4g-	4cc 4gg- 4aa-	.
=12	=12	=12
*	*^	*
*	*	*^	*
4D-X	2.aa-X	8gg-XL	2.dd-X\	.
.	.	8ff	.	.
4A-X 4d-X 4f	.	8eeni	.	.
.	.	8ffJ	.	.
4A- 4d- 4f	.	4dd-	.	.
*	*v	*v	*v	*
=13	=13	=13
4AA-X	4.cc 4.ccc	pp
4A-X 4c 4g-X	.	.
.	8cc 8ccc	.
4A- 4c 4g-	(4cc 4ccc	.
=14	=14	=14
4D-X	4.ee-X) 4.eee-X	.
4A-X 4d-X 4f	.	.
.	(8ddd-XL	.
4A- 4d- 4f	8ccc	.
.	8bb-J)	.
=15	=15	=15
4AA-X	4.cc 4.gg-X 4.aa-X	.
4A-X 4c 4g-X	.	.
.	8cc 8gg- 8aa-	.
4A- 4c 4g-	4cc 4gg- 4aa-	.
=16	=16	=16
*	*^	*
*	*	*^	*
4D-X	2.aa-X	8gg-XL	2.dd-X\	.
.	.	8ff	.	.
4A-X 4d-X 4f	.	8eeni	.	.
.	.	8ffJ	.	.
4A- 4d- 4f	.	4dd-	.	.
*	*v	*v	*v	*
=17	=17	=17
4D	4.ff	<
4G 4Bn 4f	.	.
.	8ff	.
4G 4B 4f	4ff	.
=18	=18	=18
.	((16qqff/	[
4C	4aani)	.
4A 4c 4f	8ggL	>
.	8ff	.
4A 4c 4f	8ee	.
.	8ddJ)	.
=19	=19	=19
4C	4.b-Xi 4.cc	]
4G 4c 4e	.	.
.	8b- 8cc	.
4G 4c 4e	4b- 4cc	.
=20	=20	=20
*	*^	*
4F	2.cc	8b-L	.
.	.	8a	.
4A 4c 4f	.	8g#X	.
.	.	8aJ	.
4A 4c	.	4f	.
*	*v	*v	*
=21	=21	=21
4D	4.f 4.ff	.
4G 4Bn	.	.
.	8f 8ff	.
4G 4B	4f 4ff	.
=22	=22	=22
4C	4a 4aa	.
!	!LO:TX:b:i:t=cresc.	!
4A 4c 4f	(8eeL	.
.	8ff	.
4A 4c 4f	8aa	.
.	8bb-J)	.
=23	=23	=23
4C	4.cc 4.ccc	f
4B-Xi 4c 4e	.	.
.	8cc 8ccc	.
4B- 4c 4e	4cc 4ccc	.
=24	=24	=24
4F	2ff 2fff	.
4A 4c 4f	.	.
4r	4r	.
==	==	==
*-	*-	*-
!!!system-decoration: {(s1,s2)}
!!!RDF**kern: i = editorial accidental
!!!AGN: Walzer
!!!EED: Wolfgang Drescher
!!!END: 2025/11/24
!!!ENC: Wolfgang Drescher
!!!EEV: 2025/11/24
!!!title: @{OPR}, @{SCT} №@{ONM}